X:1
T:O cueur ingrat
T:O cueur ingrat
T:Pierre de Rocourt
C:Pierre de Rocourt
%%score [ 1 [ 2 3 ] 4 ]
L:1/8
Q:1/4=100
M:2/2
K:C
V:1 treble nm="Soprano" snm="S"
V:2 treble-8 nm="Tenor 1" snm="T 1"
V:3 treble-8 nm="Tenor 2" snm="T 2"
V:4 bass nm="Bass" snm="B"
V:1
 G8 | A4 A4- | A2 GF G4 | z2 G2 G2 G2 | A2 G2 F4 | E8 | z2 E2 E2 D2 | G4 z4 | z2 G2 G2 A2 | %9
w: O|cueur in-|* * * grat,|O fraul- de|ter- ri- en-|ne,|quant tu me|voys,|quant tu me|
 B2 B2 A2 d2 | cBAG F2 _B2 | A3 G A2 B2 | c2 A3 GFE | F4 E2 A2- |"^#" AG G4 F2 | G4 G4 | A4 G4 | %17
w: voys qu'à toy suis|plus _ _ _ _ que|mien- * * *||||ne, par|mez es-|
 G8 | z2 E2 F2 G2 | A2 c4 B2 | A2 GF A3 G/F/ | E2 c2 A2 c2- | c2 B4 A2- |"^#" A2 G2 A4 | z2 G2 A4 | %25
w: cripts|de- si- rant|te re- *|veoir _ _ _ _ _|_ _ _ _|||re- viens|
 A6 GF |[M:2/4] G4 |:[M:2/2] z2 G2 G2 G2 | A4 F4 | E8 | z2 E2 E2 D2 | G4 z4 | z2 G2 G2 A2 | %33
w: vers _ _|moy,|car sans ton|prompt deb-|voir,|tu cau- se-|ras,|tu cau- se-|
 B2 B2 A2 d2 | cBAG F2 _B2 | A3 G A2 B2 | c2 A3 G FE | F4 E2 A2- | AG G4 F2 |1[M:2/4] G4 :|2 G4 || %41
w: ras ma mort a-|vec _ _ _ _ la|tien- * * *||||ne,|ne,|
[M:2/2] z2 G2 A4 | A6 GF |"^#" G8 |] %44
w: re- viens|vers _ _|moy.|
V:2
 e8 | e4 d4 | e4 z2 e2 | e6 e2 | c2 c2 d4 | G4 z2 g2 | g2 g2 g4 | z2 e2 e2 d2 | g4 z4 | %9
w: O|cueur in-|grat, O|fraul- de|ter- ri- en-|ne, quant|tu me voys,|quant tu me|voys,|
 z2 G2 A2 B2 | c4 z2 g2 | e2 c2 e2 g2 | feed/c/ d4 | z2 d2 g2 f2 | e2 c2 d4 | B4 e4 | f4 d4 | %17
w: quant tu me|voys qu'à|toy suis plus que|mien- * * * * ne,|qu'à toy suis|plus que mien-|ne, par|mez es-|
 e4 z2 e2 | f2 g2 z2 e2 | f2 g2 a2 g2 | f4 z2 e2- | ef g2 f2 e2 | d2 g3 fed | e2 e2 c4 | z2 e2 e4 | %25
w: sripts de-|si rant te|re- veoir, _ _|_ de-|* si- rant te re-|veoir, _ _ _ _|_ _ _|re- viens|
 d4 e4 |[M:2/4] z2 e2 |:[M:2/2] e6 e2 | c4 d4 | G4 z2 g2 | g2 g2 g4 | z2 e2 e2 d2 | g4 z4 | %33
w: vers moy,|car|sans ton|prompt deb-|voir, tu|cau- se- ras,|tu cau- se-|ras,|
 z2 G2 A2 B2 | c4 z2 g2 | e2 c2 e2 g2 | fe ed/c/ d4 | z2 d2 g2 f2 | e2 c2 d4 |1[M:2/4] B2 e2 :|2 %40
w: tu cau- se-|ras ma|mort a- vec la|tien- * * * * ne,|ma mort a-|vec la tien-|ne, car|
 B4 ||[M:2/2] z2 e2 e4 | d4 e4- | e8 |] %44
w: ne,|re- viens|vers moy.|_|
V:3
 B8 | c4 A4 | B4 z2 G2 | A2 B2 c2 B2 | A2 c4 B2 | c6 BA | B2 c2 B4 | z2 G2 A2 B2 | c2 BA G2 d2 | %9
w: O|cueur in-|grat, O|fraul- de ter- ri-|en- * *||* * ne,|quant tu me|voys _ _ _ qu'à|
 d2 e2 f2 g2 | e4 d4 | z2 A2 A2 G2 | c4 z2 A2 | A2 B2 c2 A2 | B2 AG A4 | G4 c4 | A4 B4 | c4 B2 c2 | %18
w: toy suis plus que|mien- ne,|quant tu me|voys, quant|tu me voys, quant|tu _ _ me|voys, par|mes es-|cripts de- si|
 d2 c2 d2 cB | A2 G2 z2 B2 | c2 d2 A3 B | c2 e2 f2 g2 | fedc d2 c2 | B4 A4 | z2 B2 c4 | A4 B4 | %26
w: rant te re _ _|veoir, _ de-|si- rant te _|_ re- re- veoir,|_ _ _ _ _ _||re- viens|vers moy,|
[M:2/4] z2 G2 |:[M:2/2] A2 B2 c2 B2 | A2 c4 B2 | c6 BA | B2 c2 B4 | z2 G2 A2 B2 | c2 BA G2 d2 | %33
w: car|sans ton prompt deb-||voir, _ _|_ _ _|tu cau- se-|ras, _ _ _ tu|
 d2 e2 f2 g2 | e4 d4 | z2 A2 A2 G2 | c4 z2 A2 | A2 B2 c2 A2 | B2 AG A4 |1[M:2/4] G4 :|2 G4 || %41
w: cau- se- ras ma|mort, _|tu cau- se-|ras ma|mort a- vec la|tien- * * *|ne,|ne,|
[M:2/2] z2 B2 c4 | A4 B4- | B8 |] %44
w: re- viens|vers moy.|_|
V:4
 E,8 | A,4 F,4 | E,8 | z2 E,2 E,2 E,2 | F,2 E,2 D,4 | C,4 z2 E,2 | E,2 C,2 G,4 | z8 | %8
w: O|cueur in-|grat,|O fraul- de|ter- ri- en-|ne, quant|tu me voys||
 z2 E,2 E,2 D,2 | G,4 z2 G,2 | A,2 A,2 _B,2 G,2 | A,3 B, C2 B,2 | A,4 D,4 | z2 D,2 E,2 F,2 | %14
w: quant tu me|voys qu'à|toy suis plus que|mien- * * *|* ne,|qu'à toy suis|
 G,2 E,2 D,4 | E,4 C,4 | F,4 G,4 | C,3 D, E,4 | z8 | z2 E,2 F,2 G,2 | A,2 B,2 C4 | %21
w: plus que mien-|ne, par|mes es-|cripts _ _||de- si- rant|te re- veoir,|
"^#" z2 C,2 D,2 E,2 | F,2 G,4 A,2 | E,4 A,,4 | z2 E,2 A,4 | F,4 E,4- |[M:2/4] E,4 |: %27
w: de- si- rant|te re- veoir,|_ _|re- viens|vers moy,|_|
[M:2/2] z2 E,2 E,2 E,2 | F,4 D,4 | C,4 z2 E,2 | E,2 C,2 G,2 G,2 | C,4 z4 | z2 E,2 E,2 D,2 | %33
w: car sans ton|prompt deb-|voir, car|sans ton prompt deb-|voir,|tu cau- se-|
 G,4 z2 G,2 |"^#" A,2 A,2 _B,2 G,2 | A,3 B, C2 B,2 | A,4 D,4 | z2 D,2 E,2 F,2 | %38
w: ras, tu|cau- se- ras ma|mort a- vec la|tien- ne,|ma mort a-|
"^#""^#" G,2 E,2 D,4 |1[M:2/4] E,4 :|2 E,4 ||[M:2/2] z2 E,2 A,4 | F,4 E,4- | E,8 |] %44
w: vec la tien-|ne,|ne,|re- viens|vers moy.|_|

